X: 25
T:Camptown Races
M:4/4
L:1/4
Q:120
R:March
K:D
"D"AAFA|BAF2|"D"F"A"E2z|"D"F"A"E2z|"D"AAFA|BAF2|"A"E2FE|"D"D2-D2::
"D"D>DFA|d2-d2|"G"B>BdB|"D"A3F|
AA F/2F/2 A/2A/2|BAF2|"A"EF/2-G/2FE|"D"D2-D2:|
